src/assets/images/map/markers/not_found/icon_21.svg

<?xml version="1.0" encoding="UTF-8" standalone="no"?>
<svg
   xmlns:dc="http://purl.org/dc/elements/1.1/"
   xmlns:cc="http://creativecommons.org/ns#"
   xmlns:rdf="http://www.w3.org/1999/02/22-rdf-syntax-ns#"
   xmlns:svg="http://www.w3.org/2000/svg"
   xmlns="http://www.w3.org/2000/svg"
   xmlns:sodipodi="http://sodipodi.sourceforge.net/DTD/sodipodi-0.dtd"
   xmlns:inkscape="http://www.inkscape.org/namespaces/inkscape"
   width="127pt"
   height="118pt"
   viewBox="0 0 127 118"
   version="1.1"
   id="svg5"
   sodipodi:docname="icon_21.svg"
   inkscape:version="0.92.1 r15371">
  <metadata
     id="metadata11">
    <rdf:RDF>
      <cc:Work
         rdf:about="">
        <dc:format>image/svg+xml</dc:format>
        <dc:type
           rdf:resource="http://purl.org/dc/dcmitype/StillImage" />
      </cc:Work>
    </rdf:RDF>
  </metadata>
  <defs
     id="defs9" />
  <sodipodi:namedview
     pagecolor="#ffffff"
     bordercolor="#666666"
     borderopacity="1"
     objecttolerance="10"
     gridtolerance="10"
     guidetolerance="10"
     inkscape:pageopacity="0"
     inkscape:pageshadow="2"
     inkscape:window-width="836"
     inkscape:window-height="480"
     id="namedview7"
     showgrid="false"
     inkscape:zoom="1.5"
     inkscape:cx="84.666667"
     inkscape:cy="78.666667"
     inkscape:window-x="0"
     inkscape:window-y="0"
     inkscape:window-maximized="0"
     inkscape:current-layer="surface1" />
  <g
     id="surface1">
    <path
       style="fill:#00ff00;fill-opacity:1;fill-rule:nonzero;stroke:none"
       d="m 77.390625,48.015625 h 5.667969 l -24.378906,-33.378906 -9.921876,13.125 V 6.933594 h -4.25 V 33.75 L 34.019531,48.015625 H 39.6875 v 7.988281 l -31.75,28.53125 h 5.953125 V 111.06641 H 113.10938 V 73.691406 h 5.66796 L 94.117188,50.867188 77.390625,66.558594 V 48.015625 m 16.726563,-3.992187 c 2.078124,0 3.683593,0.570312 4.816406,1.710937 L 123.59766,68.84375 c 2.26953,2.089844 2.83593,4.5625 1.70312,7.417969 -0.94531,2.472656 -2.74219,3.898437 -5.38672,4.277343 v 30.527348 l -1.98437,4.85156 C 116.60547,117.25 115,117.91406 113.10938,117.91406 H 13.890625 C 12,117.91406 10.394531,117.25 9.070312,115.91797 L 7.085938,111.06641 V 91.097656 C 4.441406,90.90625 2.550781,89.480469 1.417969,86.816406 0.472656,83.964844 1.132812,81.492188 3.402344,79.398438 l 28.0625,-25.105469 -3.683594,-3.425781 c -1.132812,-2.472657 -0.851562,-4.847657 0.851562,-7.128907 L 37.703125,31.753906 V 6.933594 L 39.6875,2.082031 C 41.011719,0.75 42.617188,0.0859375 44.507812,0.0859375 h 4.25 c 1.890626,0 3.496094,0.6640625 4.820313,1.9960935 1.324219,1.523438 1.984375,3.140625 1.984375,4.851563 v 1.425781 l 3.117188,-0.570313 c 2.078124,0 3.875,0.855469 5.386718,2.566407 l 24.664063,33.382812 0.851562,1.996094 4.535157,-1.710937"
       id="path2"
       inkscape:connector-curvature="0" />
  </g>
</svg>

<?xml version="1.0" encoding="UTF-8"?>
<svg xmlns="http://www.w3.org/2000/svg" xmlns:xlink="http://www.w3.org/1999/xlink" width="127pt" height="118pt" viewBox="0 0 127 118" version="1.1">
<g id="surface1">
<path style=" stroke:none;fill-rule:nonzero;fill:rgb(100%,100%,100%);fill-opacity:1;" d="M 77.390625 48.015625 L 83.058594 48.015625 L 58.679688 14.636719 L 48.757812 27.761719 L 48.757812 6.933594 L 44.507812 6.933594 L 44.507812 33.75 L 34.019531 48.015625 L 39.6875 48.015625 L 39.6875 56.003906 L 7.9375 84.535156 L 13.890625 84.535156 L 13.890625 111.066406 L 113.109375 111.066406 L 113.109375 73.691406 L 118.777344 73.691406 L 94.117188 50.867188 L 77.390625 66.558594 L 77.390625 48.015625 M 94.117188 44.023438 C 96.195312 44.023438 97.800781 44.59375 98.933594 45.734375 L 123.597656 68.84375 C 125.867188 70.933594 126.433594 73.40625 125.300781 76.261719 C 124.355469 78.734375 122.558594 80.160156 119.914062 80.539062 L 119.914062 111.066406 L 117.929688 115.917969 C 116.605469 117.25 115 117.914062 113.109375 117.914062 L 13.890625 117.914062 C 12 117.914062 10.394531 117.25 9.070312 115.917969 L 7.085938 111.066406 L 7.085938 91.097656 C 4.441406 90.90625 2.550781 89.480469 1.417969 86.816406 C 0.472656 83.964844 1.132812 81.492188 3.402344 79.398438 L 31.464844 54.292969 L 27.78125 50.867188 C 26.648438 48.394531 26.929688 46.019531 28.632812 43.738281 L 37.703125 31.753906 L 37.703125 6.933594 L 39.6875 2.082031 C 41.011719 0.75 42.617188 0.0859375 44.507812 0.0859375 L 48.757812 0.0859375 C 50.648438 0.0859375 52.253906 0.75 53.578125 2.082031 C 54.902344 3.605469 55.5625 5.222656 55.5625 6.933594 L 55.5625 8.359375 L 58.679688 7.789062 C 60.757812 7.789062 62.554688 8.644531 64.066406 10.355469 L 88.730469 43.738281 L 89.582031 45.734375 L 94.117188 44.023438 "/>
</g>
</svg>
